icons/project-roadmap-24.svg

<svg xmlns="http://www.w3.org/2000/svg" width="24" height="24" viewBox="0 0 24 24">
  <defs/>
  <path d="M8.75,7 A0.75 0.75 0 0 0 8.75,8.5 L16.25,8.5 A0.75 0.75 0 0 0 16.25,7 L8.75,7 Z M7,11.75 A0.75 0.75 0 0 1 7.75,11 L14.25,11 A0.75 0.75 0 0 1 14.25,12.5 L7.75,12.5 A0.75 0.75 0 0 1 7,11.75 Z M9.75,15 A0.75 0.75 0 0 0 9.75,16.5 L16.25,16.5 A0.75 0.75 0 0 0 16.25,15 L9.75,15 Z"/>
  <path d="M2,3.75 C2,2.784 2.784,2 3.75,2 L20.25,2 C21.216,2 22,2.784 22,3.75 L22,20.25 C22,21.216 21.216,22 20.25,22 L3.75,22 C2.784,22 2,21.216 2,20.25 Z M3.75,3.5 C3.612,3.5 3.5,3.612 3.5,3.75 L3.5,20.25 C3.5,20.388 3.612,20.5 3.75,20.5 L20.25,20.5 C20.388,20.5 20.5,20.388 20.5,20.25 L20.5,3.75 C20.5,3.612 20.388,3.5 20.25,3.5 Z"/>
</svg>

<svg xmlns="http://www.w3.org/2000/svg" width="24" height="24" viewBox="0 0 24 24"><path d="M8.75 7a.75.75 0 000 1.5h7.5a.75.75 0 000-1.5h-7.5zM7 11.75a.75.75 0 01.75-.75h6.5a.75.75 0 010 1.5h-6.5a.75.75 0 01-.75-.75zM9.75 15a.75.75 0 000 1.5h6.5a.75.75 0 000-1.5h-6.5z"/><path fill-rule="evenodd" d="M2 3.75C2 2.784 2.784 2 3.75 2h16.5c.966 0 1.75.784 1.75 1.75v16.5A1.75 1.75 0 0120.25 22H3.75A1.75 1.75 0 012 20.25V3.75zm1.75-.25h16.5a.25.25 0 01.25.25v16.5a.25.25 0 01-.25.25H3.75a.25.25 0 01-.25-.25V3.75a.25.25 0 01.25-.25z"/></svg>
